X:162
T:Thomas Sands’ Three-Parter,aka TS.162
C:untitled ‘Hornpipe’ in MS
M:C|
L:1/8
Q:1/2=90
S:Thomas Sands’ MS,1810,Lincolnshire
R:.hornpipe
N:Rare example of a 3 part hornpipe.
O:England;Lincolnshire
Z:vmp.Ruairidh Greig, 2011
K:A
“s-q in ms”(ed)|cBAG A2cA|BAGA Bcde|fgae dcBA|GABG E2(ed)|
cBAG A2fe|dcBA B2 df|egfa gfe^d|e2e2e2:|
|:”rest added”z2|e3d ceac|d3cB2(Bd)|cdec aedc|BAGAB2 cd|
e3d ceac|d3cB2(Bd)|ceAc (3Bdc (3BAG|A2A2A2:|
|:(cd)|eace dfBd|ceAc BGED|CDEF GABc|dcBA GAE2|
eace dfBd|ceAc BGED|CDEF GABc|dBAGA2:|]

